fs/news_28_filled.svg

<svg viewBox="0 0 28 28" fill="none" xmlns="http://www.w3.org/2000/svg" height="1em" width="1em">
  <path d="M22 5.75V20.5C22 20.7761 22.2239 21 22.5 21C22.7455 21 22.9496 20.8231 22.9919 20.5899L23 20.5V7H24.25C25.1682 7 25.9212 7.70711 25.9942 8.60647L26 8.75V20.75C26 22.483 24.6435 23.8992 22.9344 23.9949L22.75 24H5.25C3.51697 24 2.10075 22.6435 2.00514 20.9344L2 20.75V5.75C2 4.83183 2.70711 4.07881 3.60647 4.0058L3.75 4H20.25C21.1682 4 21.9212 4.70711 21.9942 5.60647L22 5.75V20.5V5.75ZM9.74653 13.0035H7.25C6.33183 13.0035 5.57881 13.7106 5.5058 14.6099L5.5 14.7535V17.25C5.5 18.1682 6.20711 18.9212 7.10647 18.9942L7.25 19H9.74653C10.6647 19 11.4177 18.2929 11.4907 17.3935L11.4965 17.25V14.7535C11.4965 13.8353 10.7894 13.0823 9.89005 13.0093L9.74653 13.0035ZM17.75 17.5H14.25L14.1482 17.5068C13.7822 17.5565 13.5 17.8703 13.5 18.25C13.5 18.6297 13.7822 18.9435 14.1482 18.9932L14.25 19H17.75L17.8518 18.9932C18.2178 18.9435 18.5 18.6297 18.5 18.25C18.5 17.8703 18.2178 17.5565 17.8518 17.5068L17.75 17.5ZM7.25 14.5035H9.74653C9.86487 14.5035 9.96401 14.5857 9.98992 14.6961L9.99653 14.7535V17.25C9.99653 17.3683 9.91429 17.4675 9.80385 17.4934L9.74653 17.5H7.25C7.13165 17.5 7.03251 17.4178 7.0066 17.3073L7 17.25V14.7535C7 14.6351 7.08223 14.536 7.19268 14.5101L7.25 14.5035H9.74653H7.25ZM17.75 13.0035H14.25L14.1482 13.0103C13.7822 13.06 13.5 13.3738 13.5 13.7535C13.5 14.1332 13.7822 14.447 14.1482 14.4966L14.25 14.5035H17.75L17.8518 14.4966C18.2178 14.447 18.5 14.1332 18.5 13.7535C18.5 13.3738 18.2178 13.06 17.8518 13.0103L17.75 13.0035ZM17.75 8.49666H6.25L6.14823 8.5035C5.78215 8.55317 5.5 8.86696 5.5 9.24666C5.5 9.62635 5.78215 9.94015 6.14823 9.98981L6.25 9.99666H17.75L17.8518 9.98981C18.2178 9.94015 18.5 9.62635 18.5 9.24666C18.5 8.86696 18.2178 8.55317 17.8518 8.5035L17.75 8.49666Z" fill="#212121"/>
</svg>

<svg viewBox="0 0 28 28" fill="none" xmlns="http://www.w3.org/2000/svg" height="1em" width="1em">
  <path d="M22 5.75V20.5a.5.5 0 0 0 .992.09L23 20.5V7h1.25a1.75 1.75 0 0 1 1.744 1.606L26 8.75v12a3.25 3.25 0 0 1-3.066 3.245L22.75 24H5.25a3.25 3.25 0 0 1-3.245-3.066L2 20.75v-15a1.75 1.75 0 0 1 1.606-1.744L3.75 4h16.5a1.75 1.75 0 0 1 1.744 1.606L22 5.75V20.5 5.75ZM9.747 13.004H7.25a1.75 1.75 0 0 0-1.744 1.606l-.006.144v2.496a1.75 1.75 0 0 0 1.606 1.744L7.25 19h2.497a1.75 1.75 0 0 0 1.744-1.607l.005-.143v-2.496a1.75 1.75 0 0 0-1.606-1.745l-.143-.005ZM17.75 17.5h-3.5l-.102.007a.75.75 0 0 0 0 1.486l.102.007h3.5l.102-.007a.75.75 0 0 0 0-1.486l-.102-.007Zm-10.5-2.996h2.497a.25.25 0 0 1 .243.192l.007.058v2.496a.25.25 0 0 1-.193.243l-.057.007H7.25a.25.25 0 0 1-.243-.193L7 17.25v-2.496a.25.25 0 0 1 .193-.244l.057-.006h2.497H7.25Zm10.5-1.5h-3.5l-.102.006a.75.75 0 0 0 0 1.487l.102.007h3.5l.102-.007a.75.75 0 0 0 0-1.487l-.102-.006Zm0-4.507H6.25l-.102.007a.75.75 0 0 0 0 1.486l.102.007h11.5l.102-.007a.75.75 0 0 0 0-1.486l-.102-.007Z" fill="#212121"/>
</svg>
